fs/uninstall_app_20_filled.svg

<svg viewBox="0 0 20 20" fill="none" xmlns="http://www.w3.org/2000/svg" height="1em" width="1em">
  <path d="M4.5 17C3.67157 17 3 16.3284 3 15.5V4.5C3 3.67157 3.67157 3 4.5 3H9.25C10.0784 3 10.75 3.67157 10.75 4.5V9.25H15.5C16.3284 9.25 17 9.92157 17 10.75V15.5C17 16.3284 16.3284 17 15.5 17H4.5ZM15.5 10.75H10.75V15.5H15.5V10.75ZM9.25 10.75H4.5V15.5H9.25V10.75ZM9.25 9.25V4.5H4.5V9.25H9.25ZM14.2803 6.78033C13.9874 7.07322 13.5126 7.07322 13.2197 6.78033C12.9268 6.48744 12.9268 6.01256 13.2197 5.71967L14.4393 4.5L13.2197 3.28033C12.9268 2.98744 12.9268 2.51256 13.2197 2.21967C13.5126 1.92678 13.9874 1.92678 14.2803 2.21967L15.5 3.43934L16.7197 2.21967C17.0126 1.92678 17.4874 1.92678 17.7803 2.21967C18.0732 2.51256 18.0732 2.98744 17.7803 3.28033L16.5607 4.5L17.7803 5.71967C18.0732 6.01256 18.0732 6.48744 17.7803 6.78033C17.4874 7.07322 17.0126 7.07322 16.7197 6.78033L15.5 5.56066L14.2803 6.78033Z" fill="#212121"/>
</svg>

<svg viewBox="0 0 20 20" fill="none" xmlns="http://www.w3.org/2000/svg" height="1em" width="1em">
  <path d="M4.5 17A1.5 1.5 0 0 1 3 15.5v-11A1.5 1.5 0 0 1 4.5 3h4.75a1.5 1.5 0 0 1 1.5 1.5v4.75h4.75a1.5 1.5 0 0 1 1.5 1.5v4.75a1.5 1.5 0 0 1-1.5 1.5h-11Zm11-6.25h-4.75v4.75h4.75v-4.75Zm-6.25 0H4.5v4.75h4.75v-4.75Zm0-1.5V4.5H4.5v4.75h4.75Zm5.03-2.47a.75.75 0 1 1-1.06-1.06l1.22-1.22-1.22-1.22a.75.75 0 0 1 1.06-1.06l1.22 1.22 1.22-1.22a.75.75 0 1 1 1.06 1.06L16.56 4.5l1.22 1.22a.75.75 0 0 1-1.06 1.06L15.5 5.56l-1.22 1.22Z" fill="#212121"/>
</svg>
